!! Isochronous pitch passage.
!! Treble-line.
!! From Chopin. Etude Opus 10, No. 7, measure 1ff
!! Piano
!! 6/8 meter
**kern	**metpos
*M6/8	*M6/8
*tb16	*tb16
=1	=1
16g	1
16c	4
16a-	3
16dd	4
16f	3
16b	4
16d	2
16g	4
16e-	3
16a	4
16a-	3
16b	4
=2	=2
16g	1
16cc	4
16a-	3
16dd	4
16f	3
16b	4
16d	2
16g	4
16e-	3
16an	4
16a-	3
16b	4
=3	=3
16g	1
16cc	4
16b	3
16dd	4
16b-	3
16ee	4
16ee	2
16gg	4
16dd	3
16ff	4
16a	3
16ee	4
=4	=4
16a	1
16ee	4
16a	3
16dd	4
16a	3
16ccn	4
16g	2
16cc	4
16f#	3
16cc	4
16fn	3
16b	4
=5	=5
16g	1
16cc	4
16a-	3
16dd	4
16f	3
16b	4
16d	2
16g	4
16e-	3
16an	4
16a-	3
16b	4
=6	=6
16g	1
16cc	4
16a-	3
16dd	4
16f	3
16b	4
16d	2
16g	4
16e-	3
16an	4
16a-	3
16b	4
=7	=7
16g	1
16cc	4
16a#	3
16ee	4
16b	3
16ee	4
16cc#	2
16ee	4
16ee	3
16gg	4
16b	3
16ff#	4
=8	=8
16b	1
16ee	4
16ee	3
16gg	4
16gg	3
16bb	4
16bb	2
16eee	4
16aa	3
16ddd	4
16gg	3
16bb	4
=9	=9
16gg	1
16ccc	4
16aa-	3
16ddd	4
16ff	3
16bb	4
16dd	2
16gg	4
16ee-	3
16aan	4
16aa-	3
16bb	4
=10	=10
16gg	1
16ccc	4
16aa-	3
16ddd	4
16ff	3
16bb	4
16dd	2
16gg	4
16ee-	3
16aan	4
16aa-	3
16bb	4
=11	=11
16gg	1
16ccc	4
16bb	3
16ddd	4
16bb-	3
16eee	4
16eee	2
16ggg	4
16ddd	3
16fff	4
16aa	3
16eee	4
=12	=12
16aa	1
16eee	4
16aa	3
16ddd	4
16aa	3
16cccn	4
16gg	2
16ccc	4
16ff#	3
16ccc	4
16ffn	3
16bb	4
=13	=13
16gg	1
16ccc	4
16aa-	3
16ddd	4
16ff	3
16bb	4
16dd	2
16gg	4
16ee-	3
16aan	4
16aa-	3
16bb	4
=14	=14
*-	*-
